polaris-icons/icons/newicons/HashtagMajor.svg

<svg width="20" height="20" viewBox="0 0 20 20" fill="none" xmlns="http://www.w3.org/2000/svg">
<path fill-rule="evenodd" clip-rule="evenodd" d="M14.2406 3.8686C14.306 3.45959 14.0275 3.07497 13.6185 3.00953C13.2095 2.94409 12.8249 3.22261 12.7594 3.63162L12.2605 6.75H8.77957L9.24059 3.8686C9.30603 3.45959 9.02751 3.07497 8.6185 3.00953C8.20949 2.94409 7.82487 3.22261 7.75943 3.63162L7.26049 6.75H4.25C3.83579 6.75 3.5 7.08579 3.5 7.5C3.5 7.91421 3.83579 8.25 4.25 8.25H7.02049L6.46049 11.75H3.75C3.33579 11.75 3 12.0858 3 12.5C3 12.9142 3.33579 13.25 3.75 13.25H6.22049L5.75943 16.1316C5.69399 16.5406 5.97251 16.9253 6.38152 16.9907C6.79053 17.0561 7.17515 16.7776 7.24059 16.3686L7.73957 13.25H11.2205L10.7594 16.1316C10.694 16.5406 10.9725 16.9253 11.3815 16.9907C11.7905 17.0561 12.1751 16.7776 12.2406 16.3686L12.7396 13.25H15.75C16.1642 13.25 16.5 12.9142 16.5 12.5C16.5 12.0858 16.1642 11.75 15.75 11.75H12.9796L13.5396 8.25H16.25C16.6642 8.25 17 7.91421 17 7.5C17 7.08579 16.6642 6.75 16.25 6.75H13.7796L14.2406 3.8686ZM7.97957 11.75H11.4605L12.0205 8.25H8.53957L7.97957 11.75Z" fill="black"/>
</svg>

<svg viewBox="0 0 20 20" fill="none" xmlns="http://www.w3.org/2000/svg"><path fill-rule="evenodd" clip-rule="evenodd" d="M14.24 3.869a.75.75 0 0 0-1.48-.237l-.5 3.118h-3.48l.46-2.881a.75.75 0 0 0-1.48-.237l-.5 3.118h-3.01a.75.75 0 0 0 0 1.5h2.77l-.56 3.5h-2.71a.75.75 0 0 0 0 1.5h2.47l-.46 2.882a.75.75 0 1 0 1.48.237l.5-3.119h3.48l-.46 2.882a.75.75 0 0 0 1.48.237l.5-3.119h3.01a.75.75 0 0 0 0-1.5h-2.77l.56-3.5h2.71a.75.75 0 0 0 0-1.5h-2.47l.46-2.881Zm-6.26 7.881h3.48l.56-3.5h-3.48l-.56 3.5Z" fill="#000"/></svg>
